public/images/logos/carel.svg

<svg width="581" height="147" viewBox="0 0 581 147" fill="none" xmlns="http://www.w3.org/2000/svg">
<path d="M232.142 113.686C238.506 108.651 247.024 107.369 254.516 110.862C258.204 113.018 261.005 115.87 262.548 119.925V122.037C260.253 122.301 260.253 122.301 257.606 122.037C254.781 118.716 254.781 118.716 254.781 116.405L253.104 115.746C251.251 114.998 251.251 114.998 249.838 114.294C245.704 113.947 241.937 113.69 238.144 115.482C234.745 118.696 233.1 120.875 232.724 125.523C232.616 130.313 232.599 134.368 235.716 138.227C239.549 141.268 242.863 142.221 247.72 141.746C250.808 141.039 252.861 140.153 255.09 137.875C256.281 136.129 256.281 136.128 256.899 134.003H262.548C261.729 137.717 260.69 140.715 257.606 143.154C252.218 146.251 246.847 147.699 240.659 146.673C234.807 144.803 231.317 141.467 228.211 136.321C227.063 133.571 226.864 131.13 226.89 128.196L226.904 126.596C227.075 121.397 228.299 117.37 232.142 113.686ZM430.584 113.598C434.602 108.646 439.451 108.773 445.428 109.366C448.903 110.946 450.706 113.055 452.49 116.405C452.666 118.429 452.666 118.429 452.49 119.925H447.547L446.576 117.505C445.732 114.965 445.731 114.964 444.016 114.294C442.366 114.101 442.366 114.101 440.53 114.074L438.657 113.994C436.86 114.143 436.859 114.143 435.667 115.581C434.653 117.136 434.653 117.136 434.925 119.265C435.597 121.514 435.839 122.046 437.661 123.445C439.496 124.139 441.316 124.771 443.178 125.38C450.348 127.921 450.349 127.921 452.641 131.242C454.079 134.752 453.603 137.835 452.313 141.306C450.352 144.238 448.114 145.718 444.722 146.673C439.922 147.227 435.957 146.782 432.013 143.858C429.196 140.69 428.764 138.083 428.482 134.003H433.425L433.789 135.161C434.546 137.388 435.203 139.233 436.735 141.042C439.694 142.318 442.724 142.208 445.737 141.13C446.953 140.387 446.953 140.387 447.547 138.93C447.901 135.767 447.901 135.767 446.799 132.917C444.444 131.155 441.624 130.347 438.871 129.375C435.297 128.042 431.68 126.301 429.894 122.741C429.542 119.67 429.187 116.433 430.584 113.598ZM184.877 110.07C201.117 110.07 201.117 110.07 206.766 113.59C209.52 117.021 210.118 119.916 209.96 124.297C209.106 128.836 206.252 132.126 202.53 134.707L203.92 136.813C204.516 137.724 205.111 138.635 205.707 139.546L206.626 140.935C208.884 144.402 208.885 144.402 208.885 145.97C205.244 146.422 205.244 146.422 203.236 145.97C201.765 144.452 201.016 142.641 200.146 140.734C198.279 136.902 198.279 136.902 194.909 134.553C192.755 134.326 192.755 134.326 189.82 134.707V145.97H184.877V110.07ZM368.463 110.07C370.111 110.041 371.759 110.04 373.406 110.07C371.71 116.856 369.471 123.461 367.245 130.088C366.604 131.998 365.967 133.911 365.33 135.823C364.924 137.037 364.518 138.251 364.111 139.464C363.921 140.036 363.73 140.609 363.534 141.199C362.19 145.184 362.19 145.185 361.402 145.97C359.755 145.998 358.107 145.999 356.46 145.97L355.787 143.624C354.314 138.535 352.81 133.499 350.938 128.54C349.719 125.204 348.588 121.839 347.457 118.473C347.232 117.81 347.007 117.147 346.776 116.464C346.567 115.841 346.359 115.218 346.144 114.577C345.955 114.014 345.766 113.452 345.571 112.872C345.162 111.478 345.162 111.478 345.162 110.07H350.105C352.31 115.179 354.005 120.389 355.632 125.699C356.299 127.852 357 129.983 357.74 132.111C358.578 134.707 358.578 134.707 358.578 136.819H359.99L360.476 134.267C361.317 130.467 362.665 126.899 364.012 123.252C365.239 119.759 366.224 116.225 367.195 112.652C367.757 110.774 367.757 110.774 368.463 110.07ZM155.221 110.07C157.185 114.293 158.863 118.537 160.329 122.955C160.529 123.55 160.729 124.146 160.934 124.76C161.351 126.005 161.766 127.25 162.18 128.496C162.815 130.407 163.457 132.315 164.099 134.223C164.505 135.438 164.911 136.654 165.316 137.869C165.508 138.439 165.699 139.009 165.897 139.596C166.623 141.794 167.224 143.639 167.225 145.97H162.282L160.87 140.338L146.041 141.042L143.923 145.97H138.98C140.816 138.358 143.557 131.034 146.174 123.664C146.641 122.343 147.107 121.022 147.574 119.701C148.708 116.49 149.845 113.28 150.984 110.07H155.221ZM284.437 125.556H300.678V110.07H305.62V145.97H300.678V130.484H284.437V145.97H280.201C279.495 145.266 279.495 145.266 279.41 143.845C279.411 143.221 279.413 142.598 279.415 141.955C279.415 141.251 279.415 140.546 279.415 139.82C279.418 139.054 279.422 138.287 279.426 137.498C279.427 136.718 279.427 135.938 279.428 135.134C279.432 132.631 279.442 130.127 279.451 127.624C279.454 125.932 279.457 124.239 279.46 122.547C279.468 118.388 279.48 114.229 279.495 110.07H284.437V125.556ZM327.51 145.266H322.567V110.07H327.51V145.266ZM411.536 114.294H396.001V125.556H411.536V129.78H396.001V141.042H410.83V145.266H391.059V110.07H411.536V114.294ZM153.102 117.109C152.306 117.904 152.305 117.904 150.863 122.673L150.278 124.632L149.693 126.55L149.131 128.424C148.349 131.025 147.91 133.388 147.454 136.115H159.457C158.87 133.188 158.141 130.472 157.252 127.635L156.677 125.82L156.11 123.989L155.555 122.229C154.909 120.176 154.329 118.944 153.102 117.109ZM202.53 115.702C200.16 114.103 200.16 114.103 189.82 114.294V130.484C193.196 130.514 197.967 131.35 201.117 129.78C203.077 127.919 204.432 126.671 204.951 123.992C205.05 120.705 204.731 118.289 202.53 115.702ZM64.0296 0.112265C72.2768 0.0771165 80.4679 0.127291 88.6852 0.8911C89.2818 0.946539 89.8785 1.00171 90.4932 1.05883C97.7069 1.81961 103.796 3.98137 109.059 9.10358C114.89 16.7968 113.784 25.5863 113.561 34.7522H87.4351L86.0229 27.7131C84.1747 24.7193 81.3738 24.1719 78.1413 23.236C74.8126 22.4883 71.5519 22.4844 68.1524 22.5053C67.4129 22.5033 66.6733 22.5012 65.9114 22.4991C64.3574 22.4977 62.8033 22.5019 61.2493 22.5108C58.8911 22.5221 56.5334 22.5106 54.1752 22.4971C52.6559 22.4985 51.1365 22.5012 49.6173 22.5053C48.9227 22.501 48.2277 22.4967 47.512 22.4923C41.9367 22.5477 36.6398 23.4082 31.653 25.9974C27.4848 31.0616 27.7876 37.9852 27.846 44.2199C27.8574 45.661 27.8464 47.1006 27.8329 48.5416C27.8228 54.7107 27.9759 60.6832 31.8737 65.7241C35.1193 68.132 38.2572 68.7156 42.2459 68.7336C43.4759 68.7437 43.4762 68.7433 44.7311 68.7535C46.045 68.7526 46.0452 68.7525 47.3859 68.7515C48.7487 68.756 48.7488 68.7565 50.1392 68.7611C52.0574 68.7663 53.9754 68.7662 55.8936 68.7625C58.3438 68.7584 60.794 68.7702 63.2442 68.7865C65.5928 68.7994 67.9414 68.7964 70.29 68.7955C71.1661 68.802 72.0422 68.8087 72.9448 68.8154C77.7637 68.7896 81.442 68.7076 85.1402 65.2842C86.4595 62.9629 86.4597 62.9624 87.4351 57.2772H113.561C113.986 77.0531 113.986 77.0536 108.618 83.3218C98.6 93.0766 82.2563 91.869 69.2281 91.9117C68.5077 91.9147 68.5075 91.9148 67.7725 91.9179C65.2289 91.9283 62.6854 91.9347 60.1419 91.9378C58.075 91.9409 56.0083 91.9506 53.9414 91.9667C19.6049 92.2273 19.6051 92.2273 9.10192 83.7618C-2.69712 68.7914 0.301081 46.5311 0.439079 28.5057C0.461134 25.3101 0.470547 22.1141 0.481142 18.9184C0.503552 12.6992 0.539483 6.47987 0.584575 0.260746C10.7317 0.227623 20.8791 0.203089 31.0262 0.18788C35.7393 0.180671 40.4524 0.170956 45.1655 0.154885C49.7255 0.139436 54.2855 0.131007 58.8455 0.127388C60.5735 0.124814 62.3016 0.119945 64.0296 0.112265ZM209.591 15.7467C212.199 20.6847 212.199 20.6848 214.817 25.6179C216.903 29.5706 218.895 33.5685 220.888 37.5678C223.419 42.645 225.985 47.6961 228.655 52.7018C231.702 58.4129 234.607 64.1884 237.491 69.9826C240.119 75.2489 242.835 80.4624 245.64 85.637C247.72 89.5087 247.72 89.5091 247.72 91.0648H219.476L215.592 83.7618C214.984 82.6235 214.984 82.6235 214.364 81.4624C214.048 80.8657 213.733 80.2686 213.408 79.6538C212.92 78.7361 212.92 78.7361 212.422 77.7999C211.709 76.2831 211.709 76.2827 211.709 74.8749L156.633 75.5788C152.317 83.1377 152.317 83.138 148.866 91.0648H119.21C120.059 88.9487 120.85 87.0042 121.879 85.0012C122.12 84.5294 122.362 84.0573 122.61 83.5713C122.999 82.8178 123 82.8174 123.397 82.0487C123.669 81.518 123.942 80.987 124.223 80.4402C125.109 78.7161 125.999 76.9933 126.888 75.2709C127.193 74.6799 127.498 74.089 127.812 73.4802C131.542 66.2462 135.327 59.0517 139.282 51.9368C142.63 45.8766 145.79 39.7213 148.954 33.5644C149.23 33.0274 149.506 32.4905 149.791 31.9373C150.87 29.8375 151.949 27.7377 153.027 25.6378C155.09 21.6255 157.173 17.6238 159.281 13.635C159.533 13.1573 159.785 12.6795 160.045 12.1873C162.164 8.19025 164.346 4.23072 166.518 0.260746H201.823L209.591 15.7467ZM324.296 0.0380252C350.263 -0.118563 350.263 -0.118771 358.344 6.91762C363.665 12.3007 364.567 19.7563 364.544 26.99L364.492 29.6489L364.489 32.3408C364.423 39.246 363.928 46.6702 358.989 52.0282C356.917 53.8384 354.836 55.0268 352.223 55.8694C354.269 57.3141 354.269 57.3141 356.416 58.2011C359.979 60.1586 361.698 62.8437 363.085 66.6274C364.087 71.0232 363.73 75.6765 363.653 80.1542L363.521 91.0648H336.689C336.512 82.0902 336.512 82.09 336.479 79.2723L336.413 77.0416L336.368 74.7629C335.879 72.2263 335.246 71.4613 333.158 69.9476C329.87 68.8434 326.967 68.3567 323.506 68.3157C322.15 68.2947 322.149 68.2944 320.766 68.273C319.793 68.2647 318.82 68.2564 317.848 68.2483C316.842 68.2351 315.835 68.2214 314.829 68.2071C312.196 68.1711 309.562 68.1433 306.928 68.117C303.76 68.0837 300.592 68.0404 297.424 67.9988C292.625 67.9369 287.825 67.8875 283.025 67.8359V91.0648H257.606V0.260746L298.604 0.128763C302.857 0.109538 307.11 0.0908283 311.493 0.0710208C316.734 0.061483 316.734 0.0611071 319.196 0.0593349C320.896 0.0561172 322.596 0.0488271 324.296 0.0380252ZM476.497 20.6741H408.005V36.8639H472.966V54.4616H408.711V69.9476H477.909V91.0648H382.585V0.260746H476.497V20.6741ZM522.394 68.5398H581V91.0648H496.974V0.260746H522.394V68.5398ZM183.465 20.6741C182.759 21.378 182.759 21.3783 181.807 23.1845C181.396 24.0044 180.996 24.8001 180.596 25.5959C180.145 26.4949 179.693 27.3942 179.242 28.2933C178.54 29.697 177.838 31.101 177.133 32.503C173.24 40.2393 169.53 48.0444 165.812 55.8694H201.823C201.823 54.4618 201.823 54.4617 201.253 53.1356C200.977 52.5808 200.71 52.0422 200.442 51.5037C200.131 50.8743 199.829 50.2634 199.527 49.6525C199.186 48.9711 198.856 48.3094 198.525 47.648C197.83 46.2537 197.135 44.8596 196.439 43.4658C195.335 41.265 194.233 39.0637 193.139 36.8577C192.427 35.4211 191.713 33.9858 190.995 32.5518C190.644 31.8511 190.304 31.1704 189.963 30.4903C188.162 26.8427 186.68 23.3118 183.465 20.6741ZM328.075 22.3864C326.525 22.3848 324.976 22.3882 323.426 22.4139C322.322 22.4329 321.218 22.4459 320.113 22.4524C317.215 22.4615 314.318 22.4821 311.42 22.5204C307.826 22.5683 304.233 22.5929 300.639 22.6139C295.367 22.6446 295.367 22.6446 283.025 22.7858V46.0147C288.151 46.0269 293.277 46.0409 298.404 46.0477C301.782 46.0518 305.161 46.055 308.539 46.0635C311.352 46.0713 314.165 46.078 316.977 46.0807C318.049 46.0814 319.121 46.0822 320.192 46.0835C321.732 46.089 323.271 46.0947 324.811 46.0952C325.294 46.095 325.763 46.0953 326.232 46.0952C330.137 46.1024 333.263 46.2111 336.54 43.9552C338.454 41.3017 338.488 39.7386 338.446 36.5463L338.366 34.6202C338.322 31.8107 338.675 28.8564 337.395 26.3053C335.099 24.0367 333.954 22.926 330.746 22.363C329.838 22.3711 328.956 22.3786 328.075 22.3864ZM0.584575 35.4561H1.29068C1.54937 27.0879 2.31513 17.5413 7.36977 10.5141C13.5042 3.62589 22.6796 1.94356 31.4434 1.14888L33.7713 0.964653V0.260746H0.584575V35.4561Z" fill="black"/>
</svg>

<svg xmlns="http://www.w3.org/2000/svg" width="581" height="147" fill="none"><path fill="#000" d="M232.142 113.686c6.364-5.035 14.882-6.317 22.374-2.824 3.688 2.156 6.489 5.008 8.032 9.063v2.112c-2.295.264-2.295.264-4.942 0-2.825-3.321-2.825-3.321-2.825-5.632l-1.677-.659c-1.853-.748-1.853-.748-3.266-1.452-4.134-.347-7.901-.604-11.694 1.188-3.399 3.214-5.044 5.393-5.42 10.041-.108 4.79-.125 8.845 2.992 12.704 3.833 3.041 7.147 3.994 12.004 3.519 3.088-.707 5.141-1.593 7.37-3.871 1.191-1.746 1.191-1.747 1.809-3.872h5.649c-.819 3.714-1.858 6.712-4.942 9.151-5.388 3.097-10.759 4.545-16.947 3.519-5.852-1.87-9.342-5.206-12.448-10.352-1.148-2.75-1.347-5.191-1.321-8.125l.014-1.6c.171-5.199 1.395-9.226 5.238-12.91Zm198.442-.088c4.018-4.952 8.867-4.825 14.844-4.232 3.475 1.58 5.278 3.689 7.062 7.039.176 2.024.176 2.024 0 3.52h-4.943l-.971-2.42c-.844-2.54-.845-2.541-2.56-3.211-1.65-.193-1.65-.193-3.486-.22l-1.873-.08c-1.797.149-1.798.149-2.99 1.587-1.014 1.555-1.014 1.555-.742 3.684.672 2.249.914 2.781 2.736 4.18 1.835.694 3.655 1.326 5.517 1.935 7.17 2.541 7.171 2.541 9.463 5.862 1.438 3.51.962 6.593-.328 10.064-1.961 2.932-4.199 4.412-7.591 5.367-4.8.554-8.765.109-12.709-2.815-2.817-3.168-3.249-5.775-3.531-9.855h4.943l.364 1.158c.757 2.227 1.414 4.072 2.946 5.881 2.959 1.276 5.989 1.166 9.002.088 1.216-.743 1.216-.743 1.81-2.2.354-3.163.354-3.163-.748-6.013-2.355-1.762-5.175-2.57-7.928-3.542-3.574-1.333-7.191-3.074-8.977-6.634-.352-3.071-.707-6.308.69-9.143Zm-245.707-3.528c16.24 0 16.24 0 21.889 3.52 2.754 3.431 3.352 6.326 3.194 10.707-.854 4.539-3.708 7.829-7.43 10.41l1.39 2.106 1.787 2.733.919 1.389c2.258 3.467 2.259 3.467 2.259 5.035-3.641.452-3.641.452-5.649 0-1.471-1.518-2.22-3.329-3.09-5.236-1.867-3.832-1.867-3.832-5.237-6.181-2.154-.227-2.154-.227-5.089.154v11.263h-4.943v-35.9Zm183.586 0c1.648-.029 3.296-.03 4.943 0-1.696 6.786-3.935 13.391-6.161 20.018-.641 1.91-1.278 3.823-1.915 5.735l-1.219 3.641-.577 1.735c-1.344 3.985-1.344 3.986-2.132 4.771-1.647.028-3.295.029-4.942 0l-.673-2.346c-1.473-5.089-2.977-10.125-4.849-15.084-1.219-3.336-2.35-6.701-3.481-10.067l-.681-2.009-.632-1.887-.573-1.705c-.409-1.394-.409-1.394-.409-2.802h4.943c2.205 5.109 3.9 10.319 5.527 15.629a196.833 196.833 0 0 0 2.108 6.412c.838 2.596.838 2.596.838 4.708h1.412l.486-2.552c.841-3.8 2.189-7.368 3.536-11.015 1.227-3.493 2.212-7.027 3.183-10.6.562-1.878.562-1.878 1.268-2.582Zm-213.242 0a119.84 119.84 0 0 1 5.108 12.885l.605 1.805c.417 1.245.832 2.49 1.246 3.736.635 1.911 1.277 3.819 1.919 5.727l1.217 3.646.581 1.727c.726 2.198 1.327 4.043 1.328 6.374h-4.943l-1.412-5.632-14.829.704-2.118 4.928h-4.943c1.836-7.612 4.577-14.936 7.194-22.306l1.4-3.963a6894.08 6894.08 0 0 1 3.41-9.631h4.237Zm129.216 15.486h16.241V110.07h4.942v35.9h-4.942v-15.486h-16.241v15.486h-4.236c-.706-.704-.706-.704-.791-2.125l.005-1.89v-2.135l.011-2.322.002-2.364c.004-2.503.014-5.007.023-7.51l.009-5.077c.008-4.159.02-8.318.035-12.477h4.942v15.486Zm43.073 19.71h-4.943V110.07h4.943v35.196Zm84.026-30.972h-15.535v11.262h15.535v4.224h-15.535v11.262h14.829v4.224h-19.771V110.07h20.477v4.224Zm-258.434 2.815c-.796.795-.797.795-2.239 5.564l-.585 1.959-.585 1.918-.562 1.874c-.782 2.601-1.221 4.964-1.677 7.691h12.003c-.587-2.927-1.316-5.643-2.205-8.48l-.575-1.815-.567-1.831-.555-1.76c-.646-2.053-1.226-3.285-2.453-5.12Zm49.428-1.407c-2.37-1.599-2.37-1.599-12.71-1.408v16.19c3.376.03 8.147.866 11.297-.704 1.96-1.861 3.315-3.109 3.834-5.788.099-3.287-.22-5.703-2.421-8.29ZM64.03.112c8.247-.035 16.438.015 24.655.78l1.808.167c7.214.76 13.303 2.922 18.566 8.045 5.831 7.693 4.725 16.482 4.502 25.648H87.435l-1.412-7.039c-1.848-2.994-4.65-3.541-7.882-4.477-3.328-.748-6.59-.752-9.989-.73l-2.24-.007c-1.555-.001-3.109.003-4.663.012-2.358.011-4.716 0-7.074-.014-1.52.002-3.038.004-4.558.008l-2.105-.013c-5.575.056-10.872.916-15.859 3.505-4.168 5.065-3.865 11.988-3.807 18.223.011 1.441 0 2.88-.013 4.322-.01 6.169.143 12.141 4.04 17.182 3.246 2.408 6.384 2.992 10.373 3.01l2.485.02 2.655-.003 2.753.01c1.918.005 3.836.005 5.755.002 2.45-.005 4.9.007 7.35.023 2.349.013 4.697.01 7.046.01l2.655.02c4.819-.026 8.497-.108 12.195-3.532 1.32-2.321 1.32-2.322 2.295-8.007h26.126c.425 19.776.425 19.777-4.943 26.045-10.018 9.755-26.362 8.547-39.39 8.59l-1.456.006c-2.543.01-5.087.017-7.63.02-2.067.003-4.134.013-6.2.029-34.337.26-34.337.26-44.84-8.205-11.8-14.97-8.8-37.23-8.663-55.256.022-3.196.032-6.392.042-9.588C.504 12.7.54 6.48.585.261 10.732.228 20.879.203 31.026.188 35.74.18 40.452.17 45.166.155c4.56-.016 9.12-.024 13.68-.028C60.574.125 62.302.12 64.03.112ZM209.59 15.747c2.608 4.938 2.608 4.938 5.226 9.87 2.086 3.954 4.078 7.951 6.071 11.95 2.531 5.078 5.097 10.13 7.767 15.135 3.047 5.71 5.952 11.486 8.836 17.28a520.858 520.858 0 0 0 8.149 15.655c2.08 3.872 2.08 3.872 2.08 5.428h-28.244l-3.884-7.303-1.228-2.3-.956-1.808-.986-1.854c-.713-1.517-.713-1.517-.713-2.925l-55.076.704c-4.316 7.559-4.316 7.559-7.767 15.486H119.21c.849-2.116 1.64-4.06 2.669-6.064l.731-1.43.787-1.522.826-1.609c.886-1.724 1.776-3.447 2.665-5.17l.924-1.79c3.73-7.234 7.515-14.428 11.47-21.543 3.348-6.06 6.508-12.216 9.672-18.373l.837-1.627 3.236-6.3c2.063-4.012 4.146-8.013 6.254-12.002l.764-1.448c2.119-3.997 4.301-7.956 6.473-11.926h35.305l7.768 15.486ZM324.296.038c25.967-.157 25.967-.157 34.048 6.88 5.321 5.383 6.223 12.838 6.2 20.072l-.052 2.659-.003 2.692c-.066 6.905-.561 14.33-5.5 19.687-2.072 1.81-4.153 2.999-6.766 3.841 2.046 1.445 2.046 1.445 4.193 2.332 3.563 1.958 5.282 4.643 6.669 8.426 1.002 4.396.645 9.05.568 13.527l-.132 10.91h-26.832c-.177-8.974-.177-8.974-.21-11.792l-.066-2.23-.045-2.28c-.489-2.536-1.122-3.3-3.21-4.814-3.288-1.105-6.191-1.591-9.652-1.632l-2.74-.043-2.918-.025a2143.117 2143.117 0 0 0-10.92-.131c-3.168-.033-6.336-.077-9.504-.118-4.799-.062-9.599-.111-14.399-.163v23.229h-25.419V.26l40.998-.132L311.493.07c5.241-.01 5.241-.01 7.703-.012 1.7-.003 3.4-.01 5.1-.021Zm152.201 20.636h-68.492v16.19h64.961v17.598h-64.255v15.486h69.198v21.117h-95.324V.26h93.912v20.413Zm45.897 47.866H581v22.525h-84.026V.26h25.42V68.54ZM183.465 20.674c-.706.704-.706.704-1.658 2.51l-1.211 2.412-1.354 2.697c-.702 1.404-1.404 2.808-2.109 4.21-3.893 7.736-7.603 15.541-11.321 23.366h36.011c0-1.407 0-1.407-.57-2.733l-.811-1.632-.915-1.851-1.002-2.005-2.086-4.182a1613.68 1613.68 0 0 1-3.3-6.608c-.712-1.437-1.426-2.872-2.144-4.306l-1.032-2.062c-1.801-3.647-3.283-7.178-6.498-9.816Zm144.61 1.712c-1.55-.001-3.099.002-4.649.028-1.104.019-2.208.032-3.313.038-2.898.01-5.795.03-8.693.068-3.594.048-7.187.073-10.781.094-5.272.03-5.272.03-17.614.172v23.229c5.126.012 10.252.026 15.379.033 3.378.004 6.757.007 10.135.015a4655.475 4655.475 0 0 0 11.653.02c1.54.006 3.079.012 4.619.012h1.421c3.905.007 7.031.116 10.308-2.14 1.914-2.653 1.948-4.216 1.906-7.409l-.08-1.926c-.044-2.81.309-5.764-.971-8.315-2.296-2.268-3.441-3.379-6.649-3.942l-2.671.023ZM.585 35.456h.706c.258-8.368 1.024-17.915 6.079-24.942 6.134-6.888 15.31-8.57 24.073-9.365l2.328-.184V.26H.585v35.195Z"/></svg>
